X:1
T:Jodhpur, 886 D
T:Jodhpur, 886 D
T:Edward d’Evry, 1905
T:Public Domain Courtesy of the Cyber Hymnal™
C:Edward d’Evry, 1905
Z:Public Domain
Z:Courtesy of the Cyber Hymnal™
%%score ( 1 2 ) ( 3 4 )
L:1/8
Q:1/4=105
M:4/4
K:C
V:1 treble 
V:2 treble 
V:3 bass 
V:4 bass 
V:1
 [CG]2 | [CG]2 F2 (EF) [DG]2 | (CD) [A,E]2 [B,D]2 [DA]2 | [DA]2 G2 (FG) [EA]2 | %4
 (DE) F2 [B,E]2 [CE]2 | [B,D]2 [B,G]2 A3 z A | G6 [DG]2 | [Gc]2 ([GB][FA]) [Ec]2 [EG]2 | %8
 [CA]2 (GF) [B,G]2 [DG]2 | [Gc]2 ([GB][FA]) [Ec]2 [EG]2 | [EA]2 (BA) [B,G]2 [CG]2 | %11
 [FA]2 [Fc]2 d3 z c | [Ec]6 x2 |] x6 |] %14
V:2
 x2 | x2 (A,B,) C2 x2 | A,2 x6 | x2 (B,^C) D2 x2 | A,2 (DC) x4 | x4 E2 D2 x | (B,3 F E2) x2 | x8 | %8
 x2 C2 x4 | x8 | x2 D2 x4 | x4 F2 F2 x | x8 |] x6 |] %14
V:3
 [E,G,]2 | [E,G,]2 [D,G,]2 [C,G,]2 [B,,G,]2 | [A,,E,]2 [D,^F,]2 [G,,G,]2 [=F,A,]2 | %3
 [F,A,]2 [E,A,]2 [D,A,]2 [^C,A,]2 | [F,A,]2 [D,A,]2 [E,^G,]2 [D,=G,]2 | %5
 [D,G,]2 [D,G,]2 [D,G,]2 [D,^F,]2 x | (G,3 A, G,2) [F,B,]2 | [E,C]2 [F,C]2 [C,C]2 (CB,) | %8
 [F,A,]2 [D,A,]2 [G,,G,]2 [F,B,]2 | [E,C]2 [F,C]2 [C,C]2 [B,,G,]2 | [C,G,]2 [D,^F,]2 G,2 [E,G,]2 | %11
 x9 | [F,C]2 [D,C]2 [G,C]2 [G,B,]2 |] [C,G,]6 |] %14
V:4
 x2 | x8 | x8 | x8 | x8 | x9 | G,,6 x2 | x6 E,2 | x8 | x8 | x4 (G,=F,) x2 | x9 | x8 |] x6 |] %14

